X: 36749
T: Sheila Coyle's
R: reel
M: 4/4
K: Dmajor
FAAB ADFA|ADFA BAGF|GBBA B2B2|ABdf edBA|
FAAB ADFA|ADFA BAGF|GBBB AFDF|EFGE FDD2:|
|:dffe fgfe|dcdB AFDF|A2cA eAcA|B2 BA Bcdc|
dffe fgfe|dcdB AFDF|GB B2 AFDF|EFGE FDD2:|

